X:5435
T:Rambling Sailor, The
O:england
M:4/4
L:1/8
R:polka
K:A
c3B c2A2|c2e2 f2e2|c3B c2e2|cB A2 B4|
c3B c2A2|c2e2 f2e2|fg af e2c2|B2A2 A4:|
A3B c2e2|a2e2 f2e2|A3B c2e2|f2c2 e4|
A3B c2e2|a2e2 f2e2|fg af e2c2|B2A2 A4:||
